assets/images/img_contactsupport.svg

<svg width="30" height="30" viewBox="0 0 30 30" fill="none" xmlns="http://www.w3.org/2000/svg">
<g clip-path="url(#clip0_258_6685)">
<path d="M14.375 2.5C8.5125 2.5 3.75 7.2625 3.75 13.125C3.75 18.9875 8.5125 23.75 14.375 23.75H15V27.5C21.075 24.575 25 18.75 25 13.125C25 7.2625 20.2375 2.5 14.375 2.5ZM15.625 20.625H13.125V18.125H15.625V20.625ZM15.625 16.25H13.125C13.125 12.1875 16.875 12.5 16.875 10C16.875 8.625 15.75 7.5 14.375 7.5C13 7.5 11.875 8.625 11.875 10H9.375C9.375 7.2375 11.6125 5 14.375 5C17.1375 5 19.375 7.2375 19.375 10C19.375 13.125 15.625 13.4375 15.625 16.25Z" fill="#222222"/>
</g>
<defs>
<clipPath id="clip0_258_6685">
<rect width="30" height="30" fill="white"/>
</clipPath>
</defs>
</svg>

<svg xmlns="http://www.w3.org/2000/svg" width="30" height="30" fill="none" viewBox="0 0 30 30"><g clip-path="url(#a)"><path fill="#222" d="M14.375 2.5C8.512 2.5 3.75 7.263 3.75 13.125c0 5.863 4.762 10.625 10.625 10.625H15v3.75c6.075-2.925 10-8.75 10-14.375C25 7.263 20.238 2.5 14.375 2.5Zm1.25 18.125h-2.5v-2.5h2.5v2.5Zm0-4.375h-2.5c0-4.063 3.75-3.75 3.75-6.25 0-1.375-1.125-2.5-2.5-2.5a2.507 2.507 0 0 0-2.5 2.5h-2.5c0-2.763 2.238-5 5-5s5 2.237 5 5c0 3.125-3.75 3.438-3.75 6.25Z"/></g><defs><clipPath id="a"><path fill="#fff" d="M0 0h30v30H0z"/></clipPath></defs></svg>
